X: 28390
T: Muireann's
R: jig
M: 6/8
K: Bminor
dBA ~B3|def ede|f2e ede|faf efe|
dBA ~B3|def ede|fba fed|fee edB:|
|:BAB e3|BAB fef|Bba fed|fee edB|
BAB e3|BAB fef|baf aba|fee edB:|
|:BAF E2F|FDE FDA|DAA DBB|Ddd edB|
BAF E2F|FDE FDE|FAB def|1 fed edB:|2 fed e3||
|:fef b2B|fef ~a3|fba fed|fee ede|
fef b2B|fef ~a3|baf aba|1 fee ede:|2 fee edB||

